img/Icon-Taxi.svg

<svg fill="none" height="48" viewBox="0 0 47 48" width="47" xmlns="http://www.w3.org/2000/svg"><rect fill="#006380" height="48" rx="13" width="47"/><g fill="#fff"><path d="m16.5 26.125c-.2967 0-.5867.088-.8334.2528-.2466.1648-.4389.3991-.5524.6732-.1136.2741-.1433.5757-.0854.8666.0579.291.2008.5583.4105.7681.2098.2097.4771.3526.7681.4105.2909.0579.5925.0282.8666-.0854.2741-.1135.5084-.3058.6732-.5524.1648-.2467.2528-.5367.2528-.8334 0-.3978-.158-.7794-.4393-1.0607s-.6629-.4393-1.0607-.4393zm0 2.25c-.1483 0-.2933-.044-.4167-.1264-.1233-.0824-.2194-.1995-.2762-.3366-.0568-.137-.0716-.2878-.0427-.4333.029-.1455.1004-.2791.2053-.384s.2385-.1763.384-.2053c.1455-.0289.2963-.0141.4333.0427.1371.0568.2542.1529.3366.2762.0824.1234.1264.2684.1264.4167 0 .1989-.079.3897-.2197.5303-.1406.1407-.3314.2197-.5303.2197z"/><path d="m31.5 26.125c-.2967 0-.5867.088-.8334.2528-.2466.1648-.4389.3991-.5524.6732-.1136.2741-.1433.5757-.0854.8666.0579.291.2008.5583.4105.7681.2098.2097.4771.3526.7681.4105.2909.0579.5925.0282.8666-.0854.2741-.1135.5084-.3058.6732-.5524.1648-.2467.2528-.5367.2528-.8334 0-.3978-.158-.7794-.4393-1.0607-.2814-.2813-.6629-.4393-1.0607-.4393zm0 2.25c-.1483 0-.2933-.044-.4167-.1264-.1233-.0824-.2194-.1995-.2762-.3366-.0568-.137-.0716-.2878-.0427-.4333s.1004-.2791.2053-.384.2385-.1763.384-.2053c.1455-.0289.2963-.0141.4333.0427.1371.0568.2542.1529.3366.2762.0824.1234.1264.2684.1264.4167 0 .1989-.079.3897-.2197.5303-.1406.1407-.3314.2197-.5303.2197z"/><path d="m20.625 28h6.75v.75h-6.75z"/><path d="m20.625 26.5h6.75v.75h-6.75z"/><path d="m22.875 20.875h2.25v.75h-2.25z"/><path d="m35.25 24.25v-.75c-.0009-.2981-.1197-.5837-.3305-.7945s-.4964-.3296-.7945-.3305h-1.485l-.7762-2.7225-.2326-.9262c-.061-.2433-.2015-.4591-.3992-.6133-.1977-.1543-.4413-.238-.692-.238h-3.165v-1.5c-.0006-.1987-.0798-.3892-.2203-.5297s-.331-.2197-.5297-.2203h-5.25c-.1987.0006-.3892.0798-.5297.2203s-.2197.331-.2203.5297v1.5h-3.165c-.2507 0-.4943.0837-.692.238-.1977.1542-.3382.37-.3993.6133l-.2287.9224-.78 2.7263h-1.485c-.2981.0009-.5837.1197-.7945.3305s-.3296.4964-.3305.7945v.75c.0006.19.0494.3767.1419.5426.0925.166.2256.3057.3869.4061-.339.3484-.5288.8152-.5288 1.3013v4.5c.0005.1573.0342.3128.0988.4562s.1587.2717.2762.3763v1.4175c.0009.2981.1197.5837.3305.7945s.4964.3296.7945.3305h3c.2981-.0009.5837-.1197.7945-.3305s.3296-.4964.3305-.7945v-1.125h11.25v1.125c.0009.2981.1197.5837.3305.7945s.4964.3296.7945.3305h3c.2981-.0009.5837-.1197.7945-.3305s.3296-.4964.3305-.7945v-1.4175c.1175-.1046.2116-.2329.2762-.3763s.0983-.2989.0988-.4562v-4.5c0-.4861-.1898-.9529-.5287-1.3013.1612-.1004.2943-.2401.3868-.4061.0925-.1659.1413-.3526.1419-.5426zm-13.875-7.875h5.25v1.5h-5.25zm-4.2787 2.535c.02-.0813.0668-.1535.1327-.2052.0659-.0516.1473-.0797.231-.0798h13.08c.0837.0001.1651.0282.231.0798.0659.0517.1126.1239.1327.2052l.1163.465h-14.04zm-.3151 1.215h14.4376l1.2824 4.5h-10.785c-.0881-.5241-.3591-.9999-.7648-1.3431-.4058-.3432-.92-.5315-1.4514-.5315s-1.0456.1883-1.4514.5315c-.4057.3432-.6767.819-.7648 1.3431h-1.7851zm4.1663 4.5h-2.895c.0819-.3218.2686-.6071.5308-.8109.2621-.2038.5847-.3144.9167-.3144s.6546.1106.9167.3144c.2622.2038.4489.4891.5308.8109zm-7.4475-1.125c0-.0995.0395-.1948.1098-.2652.0704-.0703.1657-.1098.2652-.1098h1.2713l-.4275 1.5h-.8438c-.0995 0-.1948-.0395-.2652-.1098-.0703-.0704-.1098-.1657-.1098-.2652zm4.125 9.75c0 .0995-.0395.1948-.1098.2652-.0704.0703-.1657.1098-.2652.1098h-3c-.0995 0-.1948-.0395-.2652-.1098-.0703-.0704-.1098-.1657-.1098-.2652v-1.125h3.75zm16.5 0c0 .0995-.0395.1948-.1098.2652-.0704.0703-.1657.1098-.2652.1098h-3c-.0995 0-.1948-.0395-.2652-.1098-.0703-.0704-.1098-.1657-.1098-.2652v-1.125h3.75zm.375-2.25c0 .0995-.0395.1948-.1098.2652-.0704.0703-.1657.1098-.2652.1098h-20.25c-.0995 0-.1948-.0395-.2652-.1098-.0703-.0704-.1098-.1657-.1098-.2652v-.375h21zm0-1.125h-21v-3.375c.0009-.2981.1197-.5837.3305-.7945s.4964-.3296.7945-.3305h18.75c.2981.0009.5837.1197.7945.3305s.3296.4964.3305.7945zm0-5.625c0 .0995-.0395.1948-.1098.2652-.0704.0703-.1657.1098-.2652.1098h-.8438l-.4274-1.5h1.2712c.0995 0 .1948.0395.2652.1098.0703.0704.1098.1657.1098.2652z"/></g></svg>

<svg width="47" height="48" viewBox="0 0 47 48" fill="none" xmlns="http://www.w3.org/2000/svg">
<g id="Group 11">
<rect id="Rectangle 22" width="47" height="48" rx="13" fill="#006380"/>
<g id="taxi 1">
<g id="Taxi Car Cab Vehicle Transport">
<path id="Vector" d="M16.5 26.125C16.2033 26.125 15.9133 26.213 15.6666 26.3778C15.42 26.5426 15.2277 26.7769 15.1142 27.051C15.0006 27.3251 14.9709 27.6267 15.0288 27.9176C15.0867 28.2086 15.2296 28.4759 15.4393 28.6857C15.6491 28.8954 15.9164 29.0383 16.2074 29.0962C16.4983 29.1541 16.7999 29.1244 17.074 29.0108C17.3481 28.8973 17.5824 28.705 17.7472 28.4584C17.912 28.2117 18 27.9217 18 27.625C18 27.2272 17.842 26.8456 17.5607 26.5643C17.2794 26.283 16.8978 26.125 16.5 26.125ZM16.5 28.375C16.3517 28.375 16.2067 28.331 16.0833 28.2486C15.96 28.1662 15.8639 28.0491 15.8071 27.912C15.7503 27.775 15.7355 27.6242 15.7644 27.4787C15.7934 27.3332 15.8648 27.1996 15.9697 27.0947C16.0746 26.9898 16.2082 26.9184 16.3537 26.8894C16.4992 26.8605 16.65 26.8753 16.787 26.9321C16.9241 26.9889 17.0412 27.085 17.1236 27.2083C17.206 27.3317 17.25 27.4767 17.25 27.625C17.25 27.8239 17.171 28.0147 17.0303 28.1553C16.8897 28.296 16.6989 28.375 16.5 28.375Z" fill="white"/>
<path id="Vector_2" d="M31.5 26.125C31.2033 26.125 30.9133 26.213 30.6666 26.3778C30.42 26.5426 30.2277 26.7769 30.1142 27.051C30.0006 27.3251 29.9709 27.6267 30.0288 27.9176C30.0867 28.2086 30.2296 28.4759 30.4393 28.6857C30.6491 28.8954 30.9164 29.0383 31.2074 29.0962C31.4983 29.1541 31.7999 29.1244 32.074 29.0108C32.3481 28.8973 32.5824 28.705 32.7472 28.4584C32.912 28.2117 33 27.9217 33 27.625C33 27.2272 32.842 26.8456 32.5607 26.5643C32.2793 26.283 31.8978 26.125 31.5 26.125ZM31.5 28.375C31.3517 28.375 31.2067 28.331 31.0833 28.2486C30.96 28.1662 30.8639 28.0491 30.8071 27.912C30.7503 27.775 30.7355 27.6242 30.7644 27.4787C30.7933 27.3332 30.8648 27.1996 30.9697 27.0947C31.0746 26.9898 31.2082 26.9184 31.3537 26.8894C31.4992 26.8605 31.65 26.8753 31.787 26.9321C31.9241 26.9889 32.0412 27.085 32.1236 27.2083C32.206 27.3317 32.25 27.4767 32.25 27.625C32.25 27.8239 32.171 28.0147 32.0303 28.1553C31.8897 28.296 31.6989 28.375 31.5 28.375Z" fill="white"/>
<path id="Vector_3" d="M20.625 28H27.375V28.75H20.625V28Z" fill="white"/>
<path id="Vector_4" d="M20.625 26.5H27.375V27.25H20.625V26.5Z" fill="white"/>
<path id="Vector_5" d="M22.875 20.875H25.125V21.625H22.875V20.875Z" fill="white"/>
<path id="Vector_6" d="M35.25 24.25V23.5C35.2491 23.2019 35.1303 22.9163 34.9195 22.7055C34.7087 22.4947 34.4231 22.3759 34.125 22.375H32.64L31.8638 19.6525L31.6312 18.7263C31.5702 18.483 31.4297 18.2672 31.232 18.113C31.0343 17.9587 30.7907 17.875 30.54 17.875H27.375V16.375C27.3744 16.1763 27.2952 15.9858 27.1547 15.8453C27.0142 15.7048 26.8237 15.6256 26.625 15.625H21.375C21.1763 15.6256 20.9858 15.7048 20.8453 15.8453C20.7048 15.9858 20.6256 16.1763 20.625 16.375V17.875H17.46C17.2093 17.875 16.9657 17.9587 16.768 18.113C16.5703 18.2672 16.4298 18.483 16.3687 18.7263L16.14 19.6487L15.36 22.375H13.875C13.5769 22.3759 13.2913 22.4947 13.0805 22.7055C12.8697 22.9163 12.7509 23.2019 12.75 23.5V24.25C12.7506 24.44 12.7994 24.6267 12.8919 24.7926C12.9844 24.9586 13.1175 25.0983 13.2788 25.1987C12.9398 25.5471 12.75 26.0139 12.75 26.5V31C12.7505 31.1573 12.7842 31.3128 12.8488 31.4562C12.9134 31.5996 13.0075 31.7279 13.125 31.8325V33.25C13.1259 33.5481 13.2447 33.8337 13.4555 34.0445C13.6663 34.2553 13.9519 34.3741 14.25 34.375H17.25C17.5481 34.3741 17.8337 34.2553 18.0445 34.0445C18.2553 33.8337 18.3741 33.5481 18.375 33.25V32.125H29.625V33.25C29.6259 33.5481 29.7447 33.8337 29.9555 34.0445C30.1663 34.2553 30.4519 34.3741 30.75 34.375H33.75C34.0481 34.3741 34.3337 34.2553 34.5445 34.0445C34.7553 33.8337 34.8741 33.5481 34.875 33.25V31.8325C34.9925 31.7279 35.0866 31.5996 35.1512 31.4562C35.2158 31.3128 35.2495 31.1573 35.25 31V26.5C35.25 26.0139 35.0602 25.5471 34.7213 25.1987C34.8825 25.0983 35.0156 24.9586 35.1081 24.7926C35.2006 24.6267 35.2494 24.44 35.25 24.25ZM21.375 16.375H26.625V17.875H21.375V16.375ZM17.0963 18.91C17.1163 18.8287 17.1631 18.7565 17.229 18.7048C17.2949 18.6532 17.3763 18.6251 17.46 18.625H30.54C30.6237 18.6251 30.7051 18.6532 30.771 18.7048C30.8369 18.7565 30.8836 18.8287 30.9037 18.91L31.02 19.375H16.98L17.0963 18.91ZM16.7812 20.125H31.2188L32.5012 24.625H21.7162C21.6281 24.1009 21.3571 23.6251 20.9514 23.2819C20.5456 22.9387 20.0314 22.7504 19.5 22.7504C18.9686 22.7504 18.4544 22.9387 18.0486 23.2819C17.6429 23.6251 17.3719 24.1009 17.2838 24.625H15.4987L16.7812 20.125ZM20.9475 24.625H18.0525C18.1344 24.3032 18.3211 24.0179 18.5833 23.8141C18.8454 23.6103 19.168 23.4997 19.5 23.4997C19.832 23.4997 20.1546 23.6103 20.4167 23.8141C20.6789 24.0179 20.8656 24.3032 20.9475 24.625ZM13.5 23.5C13.5 23.4005 13.5395 23.3052 13.6098 23.2348C13.6802 23.1645 13.7755 23.125 13.875 23.125H15.1463L14.7188 24.625H13.875C13.7755 24.625 13.6802 24.5855 13.6098 24.5152C13.5395 24.4448 13.5 24.3495 13.5 24.25V23.5ZM17.625 33.25C17.625 33.3495 17.5855 33.4448 17.5152 33.5152C17.4448 33.5855 17.3495 33.625 17.25 33.625H14.25C14.1505 33.625 14.0552 33.5855 13.9848 33.5152C13.9145 33.4448 13.875 33.3495 13.875 33.25V32.125H17.625V33.25ZM34.125 33.25C34.125 33.3495 34.0855 33.4448 34.0152 33.5152C33.9448 33.5855 33.8495 33.625 33.75 33.625H30.75C30.6505 33.625 30.5552 33.5855 30.4848 33.5152C30.4145 33.4448 30.375 33.3495 30.375 33.25V32.125H34.125V33.25ZM34.5 31C34.5 31.0995 34.4605 31.1948 34.3902 31.2652C34.3198 31.3355 34.2245 31.375 34.125 31.375H13.875C13.7755 31.375 13.6802 31.3355 13.6098 31.2652C13.5395 31.1948 13.5 31.0995 13.5 31V30.625H34.5V31ZM34.5 29.875H13.5V26.5C13.5009 26.2019 13.6197 25.9163 13.8305 25.7055C14.0413 25.4947 14.3269 25.3759 14.625 25.375H33.375C33.6731 25.3759 33.9587 25.4947 34.1695 25.7055C34.3803 25.9163 34.4991 26.2019 34.5 26.5V29.875ZM34.5 24.25C34.5 24.3495 34.4605 24.4448 34.3902 24.5152C34.3198 24.5855 34.2245 24.625 34.125 24.625H33.2812L32.8538 23.125H34.125C34.2245 23.125 34.3198 23.1645 34.3902 23.2348C34.4605 23.3052 34.5 23.4005 34.5 23.5V24.25Z" fill="white"/>
</g>
</g>
</g>
</svg>
